X: 141
T: Valantines Day in the Morning
B: 204 Favourite Country Dances
N: Published by Straight & Skillern, London ca.1775
F: http://imslp.org/wiki/204_Favourite_Country_Dances_(Various) p.71 #141
Z: 2014 John Chambers <jc:trillian.mit.edu>
M: 9/8
L: 1/8
K: D
% - - - - - - - - - - - - - - - - - - - - - - - - -
G |\
FGA BAG FED | FGA Bcd e2G |\
FGA BAG FGA | Bgf edc d2 :|
|: e |\
fde fga ecA | Bcd AGF E2a |\
bgb afd cBA | Bgf edc d2 :|
% - - - - - - - - - - - - - - - - - - - - - - - - -
%%begintext align
%% The 1st Man turns his Partner with his Right hand
%% and cast off 1 Cu. .| turn with your Left hands the Man
%% cast off the Wo. cast up :| the Man falls in between the
%% 3d Cu. his Partner between the 2d Cu. at the same time
%% .|. Lead outsides and turn :||:
%%endtext

%%sep 1 1 500
%%sep 1 1 500
